app/images/icons/flag.svg

<svg width="22" height="24" viewBox="0 0 22 24" fill="none" xmlns="http://www.w3.org/2000/svg">
<path d="M3.5 1.5V2.25L6.73438 1.45312C8.57812 1.01562 10.3594 1.20312 12.0781 2.01562C13.1719 2.57812 14.3125 2.85938 15.5 2.85938C16.6875 2.85938 17.8438 2.57812 18.9688 2.01562L19.3906 1.78125C19.9219 1.5625 20.3906 1.59375 20.7969 1.875C21.2344 2.125 21.4688 2.53125 21.5 3.09375V14.7188C21.4688 15.375 21.1406 15.8438 20.5156 16.125L18.9219 16.7344C16.6406 17.5469 14.4219 17.4219 12.2656 16.3594C10.4219 15.4844 8.5 15.2812 6.5 15.75L3.5 16.5V22.5C3.5 22.9375 3.35938 23.2969 3.07812 23.5781C2.79688 23.8594 2.4375 24 2 24C1.5625 24 1.20312 23.8594 0.921875 23.5781C0.640625 23.2969 0.5 22.9375 0.5 22.5V1.5C0.5 1.0625 0.640625 0.703125 0.921875 0.421875C1.20312 0.140625 1.5625 0 2 0C2.4375 0 2.79688 0.140625 3.07812 0.421875C3.35938 0.703125 3.5 1.0625 3.5 1.5Z" fill="#1D53C0"/>
</svg>

<svg width="22" height="24" fill="none" xmlns="http://www.w3.org/2000/svg"><path d="M3.5 1.5v.75l3.234-.797c1.844-.437 3.625-.25 5.344.563a7.388 7.388 0 003.422.843c1.188 0 2.344-.28 3.469-.843l.422-.235c.53-.218 1-.187 1.406.094.437.25.672.656.703 1.219v11.625c-.031.656-.36 1.125-.984 1.406l-1.594.61c-2.281.812-4.5.687-6.656-.376-1.844-.875-3.766-1.078-5.766-.609l-3 .75v6c0 .438-.14.797-.422 1.078C2.797 23.86 2.438 24 2 24c-.438 0-.797-.14-1.078-.422C.64 23.297.5 22.938.5 22.5v-21C.5 1.062.64.703.922.422 1.203.14 1.562 0 2 0c.438 0 .797.14 1.078.422.281.281.422.64.422 1.078z" fill="#1D53C0"/></svg>
